X: 14782
T: Gan Ainm
R: polka
M: 2/4
K: Gmajor
|:D(3D/2E/2D/2 BG|D(3D/2E/2D/2 Be|d^c =c/2A/2F/2D/2|E^D E B/2G/2|
D(3D/2E/2D/2 BG|D(3D/2E/2D/2 Be|dc c/2A/2F/2A/2|D/2^D/2E/2F/2 G2:|
|:AA fA|gg g/2e/2^c/2A/2|BB B/2A/2F/2D/2|AA D/2E/2F/2G/2|
AA fA|gg g/2e/2^c/2A/2|BB B/2A/2F/2D/2|B^c d2:|

